src/assets/images/icons/lock-unlock-line.svg

<svg width="24" height="24" viewBox="0 0 24 24" fill="none" xmlns="http://www.w3.org/2000/svg">
<g clip-path="url(#clip0_58_16392)">
<path d="M7 10.0001H20C20.2652 10.0001 20.5196 10.1054 20.7071 10.293C20.8946 10.4805 21 10.7349 21 11.0001V21.0001C21 21.2653 20.8946 21.5197 20.7071 21.7072C20.5196 21.8947 20.2652 22.0001 20 22.0001H4C3.73478 22.0001 3.48043 21.8947 3.29289 21.7072C3.10536 21.5197 3 21.2653 3 21.0001V11.0001C3 10.7349 3.10536 10.4805 3.29289 10.293C3.48043 10.1054 3.73478 10.0001 4 10.0001H5V9.00009C4.99943 7.42279 5.53158 5.89153 6.51019 4.65452C7.4888 3.41752 8.8565 2.54727 10.3916 2.18485C11.9267 1.82243 13.5392 1.98909 14.9677 2.6578C16.3963 3.32651 17.5571 4.45809 18.262 5.86909L16.473 6.76309C15.9695 5.75511 15.1403 4.94674 14.1198 4.46904C13.0994 3.99134 11.9475 3.87232 10.8509 4.13127C9.7543 4.39022 8.77733 5.01196 8.07836 5.8957C7.37939 6.77943 6.9994 7.87335 7 9.00009V10.0001ZM5 12.0001V20.0001H19V12.0001H5ZM10 15.0001H14V17.0001H10V15.0001Z" fill="#181D27"/>
</g>
<defs>
<clipPath id="clip0_58_16392">
<rect width="24" height="24" fill="white"/>
</clipPath>
</defs>
</svg>

<svg xmlns="http://www.w3.org/2000/svg" width="24" height="24" fill="none" viewBox="0 0 24 24"><g clip-path="url(#a)"><path fill="#181d27" d="M7 10h13a1 1 0 0 1 1 1v10a1 1 0 0 1-1 1H4a1 1 0 0 1-1-1V11a1 1 0 0 1 1-1h1V9a7 7 0 0 1 13.262-3.13l-1.789.893A5 5 0 0 0 7 9zm-2 2v8h14v-8zm5 3h4v2h-4z"/></g><defs><clipPath id="a"><path fill="#fff" d="M0 0h24v24H0z"/></clipPath></defs></svg>
